Newaita-dark/apps/scalable/preferences-system-windows.svg

<?xml version="1.0" encoding="UTF-8"?>
<svg xmlns="http://www.w3.org/2000/svg" xmlns:xlink="http://www.w3.org/1999/xlink" width="512pt" height="512pt" viewBox="0 0 512 512" version="1.1">
<defs>
<linearGradient id="linear0" gradientUnits="userSpaceOnUse" x1="254" y1="233.5" x2="254" y2="254.666672" gradientTransform="matrix(1.000095,0,0,1.000095,-0.000061041,215.020531)">
<stop offset="0" style="stop-color:rgb(0%,0%,0%);stop-opacity:0.27451;"/>
<stop offset="1" style="stop-color:rgb(0%,0%,0%);stop-opacity:0;"/>
</linearGradient>
<radialGradient id="radial0" gradientUnits="userSpaceOnUse" cx="450.908936" cy="189.579361" fx="450.908936" fy="189.579361" r="21.166656" gradientTransform="matrix(0.00000278673,-1.250119,-2.250215,-0.00000162462,855.259056,1017.525291)">
<stop offset="0" style="stop-color:rgb(0%,0%,0%);stop-opacity:0.313725;"/>
<stop offset="0.222222" style="stop-color:rgb(0%,0%,0%);stop-opacity:0.27451;"/>
<stop offset="1" style="stop-color:rgb(0%,0%,0%);stop-opacity:0;"/>
</radialGradient>
<radialGradient id="radial1" gradientUnits="userSpaceOnUse" cx="450.908936" cy="189.579361" fx="450.908936" fy="189.579361" r="21.166656" gradientTransform="matrix(-0.00000278673,1.250119,2.250215,0.00000162462,-347.210583,-120.439692)">
<stop offset="0" style="stop-color:rgb(0%,0%,0%);stop-opacity:0.313725;"/>
<stop offset="0.222222" style="stop-color:rgb(0%,0%,0%);stop-opacity:0.27451;"/>
<stop offset="1" style="stop-color:rgb(0%,0%,0%);stop-opacity:0;"/>
</radialGradient>
<radialGradient id="radial2" gradientUnits="userSpaceOnUse" cx="450.908936" cy="189.579361" fx="450.908936" fy="189.579361" r="21.166656" gradientTransform="matrix(-0.00000278673,-1.250119,2.250215,-0.00000162462,-347.210583,1017.525291)">
<stop offset="0" style="stop-color:rgb(0%,0%,0%);stop-opacity:0.313725;"/>
<stop offset="0.222222" style="stop-color:rgb(0%,0%,0%);stop-opacity:0.27451;"/>
<stop offset="1" style="stop-color:rgb(0%,0%,0%);stop-opacity:0;"/>
</radialGradient>
<radialGradient id="radial3" gradientUnits="userSpaceOnUse" cx="450.908936" cy="189.579361" fx="450.908936" fy="189.579361" r="21.166656" gradientTransform="matrix(0.00000278673,1.250119,-2.250215,0.00000162462,855.259026,-120.4397)">
<stop offset="0" style="stop-color:rgb(0%,0%,0%);stop-opacity:0.313725;"/>
<stop offset="0.222222" style="stop-color:rgb(0%,0%,0%);stop-opacity:0.27451;"/>
<stop offset="1" style="stop-color:rgb(0%,0%,0%);stop-opacity:0;"/>
</radialGradient>
<linearGradient id="linear1" gradientUnits="userSpaceOnUse" x1="306.916656" y1="-25.791676" x2="305.954559" y2="-135.329163" gradientTransform="matrix(1.205595,0,0,3.478593,-93.664209,538.261571)">
<stop offset="0" style="stop-color:rgb(74.117647%,74.117647%,74.117647%);stop-opacity:1;"/>
<stop offset="1" style="stop-color:rgb(87.843137%,87.843137%,87.843137%);stop-opacity:1;"/>
</linearGradient>
<linearGradient id="linear2" gradientUnits="userSpaceOnUse" x1="306.916656" y1="-25.791676" x2="305.954559" y2="-135.329163" gradientTransform="matrix(4.556143,0,0,13.146184,-353.972656,2034.180176)">
<stop offset="0" style="stop-color:rgb(25.882353%,25.882353%,25.882353%);stop-opacity:1;"/>
<stop offset="1" style="stop-color:rgb(38.039216%,38.039216%,38.039216%);stop-opacity:1;"/>
</linearGradient>
<linearGradient id="linear3" gradientUnits="userSpaceOnUse" x1="349.25" y1="-158.083328" x2="349.25" y2="-115.75" gradientTransform="matrix(0.749999,0,0,0.749999,71.437767,-2.479259)">
<stop offset="0" style="stop-color:rgb(40%,73.333333%,41.568627%);stop-opacity:1;"/>
<stop offset="1" style="stop-color:rgb(50.588235%,78.039216%,51.764706%);stop-opacity:1;"/>
</linearGradient>
<linearGradient id="linear4" gradientUnits="userSpaceOnUse" x1="349.25" y1="-158.083328" x2="349.25" y2="-115.75" gradientTransform="matrix(0.750001,0,0,0.750001,124.353661,-2.47902)">
<stop offset="0" style="stop-color:rgb(100%,83.529412%,30.980392%);stop-opacity:1;"/>
<stop offset="1" style="stop-color:rgb(100%,87.843137%,50.980392%);stop-opacity:1;"/>
</linearGradient>
<linearGradient id="linear5" gradientUnits="userSpaceOnUse" x1="349.25" y1="-158.083328" x2="349.25" y2="-115.75" gradientTransform="matrix(0.75,0,0,0.75,177.270798,-2.479186)">
<stop offset="0" style="stop-color:rgb(89.803922%,45.098039%,45.098039%);stop-opacity:1;"/>
<stop offset="1" style="stop-color:rgb(93.72549%,60.392157%,60.392157%);stop-opacity:1;"/>
</linearGradient>
<linearGradient id="linear6" gradientUnits="userSpaceOnUse" x1="254" y1="148.833328" x2="254" y2="-41.666668" gradientTransform="matrix(1,0,0,1,0.00000666667,27.763178)">
<stop offset="0" style="stop-color:rgb(37.647059%,49.019608%,54.509804%);stop-opacity:1;"/>
<stop offset="1" style="stop-color:rgb(47.058824%,56.470588%,61.176471%);stop-opacity:1;"/>
</linearGradient>
</defs>
<g id="surface1">
<path style=" stroke:none;fill-rule:nonzero;fill:url(#linear0);" d="M 74.089844 448.542969 L 433.957031 448.542969 L 433.957031 469.710938 L 74.089844 469.710938 Z M 74.089844 448.542969 "/>
<path style=" stroke:none;fill-rule:nonzero;fill:url(#radial0);" d="M 433.957031 448.542969 L 476.296875 448.542969 L 476.296875 427.375 L 433.957031 427.375 Z M 433.957031 448.542969 "/>
<path style=" stroke:none;fill-rule:nonzero;fill:url(#radial1);" d="M 74.089844 448.542969 L 31.753906 448.542969 L 31.753906 469.710938 L 74.089844 469.710938 Z M 74.089844 448.542969 "/>
<path style=" stroke:none;fill-rule:nonzero;fill:url(#radial2);" d="M 74.089844 448.542969 L 31.753906 448.542969 L 31.753906 427.375 L 74.089844 427.375 Z M 74.089844 448.542969 "/>
<path style=" stroke:none;fill-rule:nonzero;fill:url(#radial3);" d="M 433.957031 448.542969 L 476.296875 448.542969 L 476.296875 469.710938 L 433.957031 469.710938 Z M 433.957031 448.542969 "/>
<path style=" stroke:none;fill-rule:nonzero;fill:url(#linear1);" d="M 52.921875 67.507812 L 455.125 67.507812 C 466.816406 67.507812 476.296875 76.984375 476.296875 88.675781 L 476.296875 427.375 C 476.296875 439.066406 466.816406 448.542969 455.125 448.542969 L 52.921875 448.542969 C 41.230469 448.542969 31.753906 439.066406 31.753906 427.375 L 31.753906 88.675781 C 31.753906 76.984375 41.230469 67.507812 52.921875 67.507812 Z M 52.921875 67.507812 "/>
<path style=" stroke:none;fill-rule:nonzero;fill:rgb(0%,0%,0%);fill-opacity:0.235294;" d="M 52.921875 448.75 C 41.195312 448.75 31.753906 439.308594 31.753906 427.582031 L 31.753906 422.082031 C 31.753906 433.808594 41.195312 443.25 52.921875 443.25 L 455.125 443.25 C 466.855469 443.25 476.296875 433.808594 476.296875 422.082031 L 476.296875 427.582031 C 476.296875 439.308594 466.855469 448.75 455.125 448.75 Z M 52.921875 448.75 "/>
<path style="fill-rule:nonzero;fill:url(#linear2);stroke-width:11.338583;stroke-linecap:round;stroke-linejoin:miter;stroke:rgb(12.941177%,12.941177%,12.941177%);stroke-opacity:1;stroke-miterlimit:4;" d="M 200.000596 255.123288 C 155.68396 255.123288 120.00331 290.803938 120.00331 335.120574 L 120.00331 575.112433 L 1800.005368 575.112433 L 1800.005368 335.120574 C 1800.005368 290.803938 1764.324718 255.123288 1719.99332 255.123288 Z M 200.000596 255.123288 " transform="matrix(0.264609,0,0,0.264609,0,0)"/>
<path style=" stroke:none;fill-rule:nonzero;fill:rgb(100%,100%,100%);fill-opacity:0.392157;" d="M 52.921875 68.730469 C 41.195312 68.730469 31.753906 78.167969 31.753906 89.898438 L 31.753906 95.398438 C 31.753906 83.671875 41.195312 74.230469 52.921875 74.230469 L 455.125 74.230469 C 466.855469 74.230469 476.296875 83.671875 476.296875 95.398438 L 476.296875 89.898438 C 476.296875 78.167969 466.855469 68.730469 455.125 68.730469 Z M 52.921875 68.730469 "/>
<path style=" stroke:none;fill-rule:nonzero;fill:rgb(12.941177%,12.941177%,12.941177%);fill-opacity:1;" d="M 52.921875 66.007812 C 40.386719 66.007812 30.253906 76.140625 30.253906 88.675781 L 30.253906 427.375 C 30.253906 439.90625 40.386719 450.042969 52.921875 450.042969 L 455.128906 450.042969 C 467.660156 450.042969 477.796875 439.90625 477.796875 427.375 L 477.796875 88.675781 C 477.796875 76.140625 467.660156 66.007812 455.128906 66.007812 Z M 52.921875 69.007812 L 455.128906 69.007812 C 466.050781 69.007812 474.796875 77.753906 474.796875 88.675781 L 474.796875 427.375 C 474.796875 438.296875 466.050781 447.042969 455.128906 447.042969 L 52.921875 447.042969 C 42 447.042969 33.253906 438.296875 33.253906 427.375 L 33.253906 88.675781 C 33.253906 77.753906 42 69.007812 52.921875 69.007812 Z M 52.921875 69.007812 "/>
<path style="fill-rule:nonzero;fill:url(#linear3);stroke-width:3;stroke-linecap:round;stroke-linejoin:miter;stroke:rgb(12.941177%,12.941177%,12.941177%);stroke-opacity:1;stroke-miterlimit:4;" d="M 333.374414 -121.040223 C 342.143108 -121.040223 349.251804 -113.935432 349.251804 -105.166739 C 349.251804 -96.398045 342.143108 -89.293254 333.374414 -89.293254 C 324.60572 -89.293254 317.50093 -96.398045 317.50093 -105.166739 C 317.50093 -113.935432 324.60572 -121.040223 333.374414 -121.040223 Z M 333.374414 -121.040223 " transform="matrix(1.000095,0,0,1.000095,0,215.020531)"/>
<path style="fill-rule:nonzero;fill:url(#linear4);stroke-width:3;stroke-linecap:round;stroke-linejoin:miter;stroke:rgb(12.941177%,12.941177%,12.941177%);stroke-opacity:1;stroke-miterlimit:4;" d="M 386.291236 -121.040223 C 395.05993 -121.040223 402.168626 -113.935432 402.168626 -105.166739 C 402.168626 -96.398045 395.05993 -89.293254 386.291236 -89.293254 C 377.522542 -89.293254 370.417752 -96.398045 370.417752 -105.166739 C 370.417752 -113.935432 377.522542 -121.040223 386.291236 -121.040223 Z M 386.291236 -121.040223 " transform="matrix(1.000095,0,0,1.000095,0,215.020531)"/>
<path style="fill-rule:nonzero;fill:url(#linear5);stroke-width:3;stroke-linecap:round;stroke-linejoin:miter;stroke:rgb(12.941177%,12.941177%,12.941177%);stroke-opacity:1;stroke-miterlimit:4;" d="M 439.208058 -121.040223 C 447.976752 -121.040223 455.081542 -113.935432 455.081542 -105.166739 C 455.081542 -96.398045 447.976752 -89.293254 439.208058 -89.293254 C 430.439364 -89.293254 423.334574 -96.398045 423.334574 -105.166739 C 423.334574 -113.935432 430.439364 -121.040223 439.208058 -121.040223 Z M 439.208058 -121.040223 " transform="matrix(1.000095,0,0,1.000095,0,215.020531)"/>
<path style="fill-rule:nonzero;fill:url(#linear6);stroke-width:3;stroke-linecap:round;stroke-linejoin:miter;stroke:rgb(12.941177%,12.941177%,12.941177%);stroke-opacity:1;stroke-miterlimit:4;" d="M 243.418161 -11.910019 C 237.55544 -11.910019 232.833234 -7.19172 232.833234 -1.325092 L 232.833234 17.844952 C 229.302321 18.981562 225.896397 20.383772 222.642801 22.047676 L 209.09722 8.506 C 204.953084 4.357959 198.27794 4.357959 194.129899 8.506 L 179.166484 23.473321 C 175.018443 27.617456 175.018443 34.2926 179.166484 38.436736 L 192.70816 51.982317 C 191.044256 55.235913 189.63814 58.641837 188.505436 62.17275 L 169.331486 62.17275 C 163.468765 62.17275 158.750465 66.894955 158.750465 72.757677 L 158.750465 93.923624 C 158.750465 99.786346 163.468765 104.504645 169.331486 104.504645 L 188.505436 104.504645 C 189.63814 108.039464 191.044256 111.445389 192.70816 114.698984 L 179.166484 128.24066 C 175.018443 132.384795 175.018443 139.063845 179.166484 143.20798 L 194.129899 158.175301 C 198.27794 162.319437 204.953084 162.319437 209.09722 158.175301 L 222.638895 144.633625 C 225.896397 146.293623 229.302321 147.699739 232.833234 148.832443 L 232.833234 168.006393 C 232.833234 173.869115 237.55544 178.59132 243.418161 178.59132 L 264.584108 178.59132 C 270.44683 178.59132 275.165129 173.869115 275.165129 168.006393 L 275.165129 148.832443 C 278.699948 147.699739 282.105873 146.293623 285.359468 144.633625 L 298.901144 158.175301 C 303.045279 162.319437 309.720423 162.319437 313.868465 158.175301 L 328.835785 143.20798 C 332.979921 139.063845 332.979921 132.384795 328.835785 128.24066 L 315.29411 114.698984 C 316.954107 111.445389 318.360223 108.039464 319.492927 104.504645 L 338.666878 104.504645 C 344.529599 104.504645 349.251804 99.786346 349.251804 93.923624 L 349.251804 72.757677 C 349.251804 66.894955 344.529599 62.17275 338.666878 62.17275 L 319.492927 62.17275 C 318.360223 58.641837 316.954107 55.235913 315.29411 51.982317 L 328.835785 38.436736 C 332.979921 34.2926 332.979921 27.617456 328.835785 23.473321 L 313.868465 8.506 C 309.720423 4.357959 303.045279 4.357959 298.901144 8.506 L 285.359468 22.047676 C 282.105873 20.383772 278.696042 18.981562 275.165129 17.844952 L 275.165129 -1.325092 C 275.165129 -7.19172 270.44683 -11.910019 264.584108 -11.910019 Z M 253.999182 41.006803 C 277.453973 41.006803 296.334983 59.887812 296.334983 83.338698 C 296.334983 106.793489 277.453973 125.674498 253.999182 125.674498 C 230.548296 125.674498 211.667287 106.793489 211.667287 83.338698 C 211.667287 59.887812 230.548296 41.006803 253.999182 41.006803 Z M 253.999182 41.006803 " transform="matrix(1.000095,0,0,1.000095,0,215.020531)"/>
</g>
</svg>

<svg xmlns="http://www.w3.org/2000/svg" width="512pt" height="512pt" viewBox="0 0 512 512"><defs><linearGradient id="a" gradientUnits="userSpaceOnUse" x1="254" y1="233.5" x2="254" y2="254.667" gradientTransform="matrix(1.0001 0 0 1.0001 0 215.02)"><stop offset="0" stop-opacity=".275"/><stop offset="1" stop-opacity="0"/></linearGradient><radialGradient id="b" gradientUnits="userSpaceOnUse" cx="450.909" cy="189.579" fx="450.909" fy="189.579" r="21.167" gradientTransform="matrix(0 -1.25012 -2.25021 0 855.26 1017.525)"><stop offset="0" stop-opacity=".314"/><stop offset=".222" stop-opacity=".275"/><stop offset="1" stop-opacity="0"/></radialGradient><radialGradient id="c" gradientUnits="userSpaceOnUse" cx="450.909" cy="189.579" fx="450.909" fy="189.579" r="21.167" gradientTransform="matrix(0 1.25012 2.25021 0 -347.21 -120.44)"><stop offset="0" stop-opacity=".314"/><stop offset=".222" stop-opacity=".275"/><stop offset="1" stop-opacity="0"/></radialGradient><radialGradient id="d" gradientUnits="userSpaceOnUse" cx="450.909" cy="189.579" fx="450.909" fy="189.579" r="21.167" gradientTransform="matrix(0 -1.25012 2.25021 0 -347.21 1017.525)"><stop offset="0" stop-opacity=".314"/><stop offset=".222" stop-opacity=".275"/><stop offset="1" stop-opacity="0"/></radialGradient><radialGradient id="e" gradientUnits="userSpaceOnUse" cx="450.909" cy="189.579" fx="450.909" fy="189.579" r="21.167" gradientTransform="matrix(0 1.25012 -2.25021 0 855.259 -120.44)"><stop offset="0" stop-opacity=".314"/><stop offset=".222" stop-opacity=".275"/><stop offset="1" stop-opacity="0"/></radialGradient><linearGradient id="f" gradientUnits="userSpaceOnUse" x1="306.917" y1="-25.792" x2="305.955" y2="-135.329" gradientTransform="matrix(1.2056 0 0 3.4786 -93.664 538.262)"><stop offset="0" stop-color="#bdbdbd"/><stop offset="1" stop-color="#e0e0e0"/></linearGradient><linearGradient id="g" gradientUnits="userSpaceOnUse" x1="306.917" y1="-25.792" x2="305.955" y2="-135.329" gradientTransform="matrix(4.55614 0 0 13.14618 -353.973 2034.18)"><stop offset="0" stop-color="#424242"/><stop offset="1" stop-color="#616161"/></linearGradient><linearGradient id="h" gradientUnits="userSpaceOnUse" x1="349.25" y1="-158.083" x2="349.25" y2="-115.75" gradientTransform="matrix(.75 0 0 .75 71.438 -2.48)"><stop offset="0" stop-color="#66bb6a"/><stop offset="1" stop-color="#81c784"/></linearGradient><linearGradient id="i" gradientUnits="userSpaceOnUse" x1="349.25" y1="-158.083" x2="349.25" y2="-115.75" gradientTransform="matrix(.75 0 0 .75 124.354 -2.479)"><stop offset="0" stop-color="#ffd54f"/><stop offset="1" stop-color="#ffe082"/></linearGradient><linearGradient id="j" gradientUnits="userSpaceOnUse" x1="349.25" y1="-158.083" x2="349.25" y2="-115.75" gradientTransform="matrix(.75 0 0 .75 177.27 -2.48)"><stop offset="0" stop-color="#e57373"/><stop offset="1" stop-color="#ef9a9a"/></linearGradient><linearGradient id="k" gradientUnits="userSpaceOnUse" x1="254" y1="148.833" x2="254" y2="-41.667" gradientTransform="translate(0 27.763)"><stop offset="0" stop-color="#607d8b"/><stop offset="1" stop-color="#78909c"/></linearGradient></defs><path d="M74.09 448.543h359.867v21.168H74.09zm0 0" fill="url(#a)"/><path d="M433.957 448.543h42.34v-21.168h-42.34zm0 0" fill="url(#b)"/><path d="M74.09 448.543H31.754v21.168H74.09zm0 0" fill="url(#c)"/><path d="M74.09 448.543H31.754v-21.168H74.09zm0 0" fill="url(#d)"/><path d="M433.957 448.543h42.34v21.168h-42.34zm0 0" fill="url(#e)"/><path d="M52.922 67.508h402.203c11.691 0 21.172 9.476 21.172 21.168v338.699c0 11.691-9.48 21.168-21.172 21.168H52.922c-11.692 0-21.168-9.477-21.168-21.168v-338.7c0-11.69 9.476-21.167 21.168-21.167zm0 0" fill="url(#f)"/><path d="M52.922 448.75a21.122 21.122 0 0 1-21.168-21.168v-5.5a21.122 21.122 0 0 0 21.168 21.168h402.203a21.123 21.123 0 0 0 21.172-21.168v5.5a21.123 21.123 0 0 1-21.172 21.168zm0 0" fill-opacity=".235"/><path d="M200 255.123c-44.316 0-79.997 35.68-79.997 79.998v239.991h1680.002V335.121c0-44.317-35.68-79.998-80.012-79.998zm0 0" transform="rotate(.158) scale(.26461)" fill="url(#g)" stroke-width="11.339" stroke-linecap="round" stroke="#212121"/><path d="M52.922 68.73a21.12 21.12 0 0 0-21.168 21.168v5.5A21.122 21.122 0 0 1 52.922 74.23h402.203a21.123 21.123 0 0 1 21.172 21.168v-5.5a21.12 21.12 0 0 0-21.172-21.168zm0 0" fill="#fff" fill-opacity=".392"/><path d="M52.922 66.008c-12.535 0-22.668 10.133-22.668 22.668v338.699c0 12.531 10.133 22.668 22.668 22.668h402.207c12.531 0 22.668-10.137 22.668-22.668v-338.7c0-12.534-10.137-22.667-22.668-22.667zm0 3h402.207a19.592 19.592 0 0 1 19.668 19.668v338.699a19.592 19.592 0 0 1-19.668 19.668H52.922a19.592 19.592 0 0 1-19.668-19.668v-338.7a19.592 19.592 0 0 1 19.668-19.667zm0 0" fill="#212121"/><path d="M333.374-121.04c8.77 0 15.878 7.105 15.878 15.873 0 8.769-7.109 15.874-15.878 15.874-8.768 0-15.873-7.105-15.873-15.874 0-8.768 7.105-15.873 15.873-15.873zm0 0" transform="matrix(1.0001 0 0 1.0001 0 215.02)" fill="url(#h)" stroke-width="3" stroke-linecap="round" stroke="#212121"/><path d="M386.291-121.04c8.769 0 15.878 7.105 15.878 15.873 0 8.769-7.11 15.874-15.878 15.874s-15.873-7.105-15.873-15.874c0-8.768 7.105-15.873 15.873-15.873zm0 0" transform="matrix(1.0001 0 0 1.0001 0 215.02)" fill="url(#i)" stroke-width="3" stroke-linecap="round" stroke="#212121"/><path d="M439.208-121.04c8.769 0 15.874 7.105 15.874 15.873 0 8.769-7.105 15.874-15.874 15.874s-15.873-7.105-15.873-15.874c0-8.768 7.104-15.873 15.873-15.873zm0 0" transform="matrix(1.0001 0 0 1.0001 0 215.02)" fill="url(#j)" stroke-width="3" stroke-linecap="round" stroke="#212121"/><path d="M243.418-11.91a10.561 10.561 0 0 0-10.585 10.585v19.17a68.389 68.389 0 0 0-10.19 4.203L209.097 8.506a10.557 10.557 0 0 0-14.967 0l-14.964 14.967a10.552 10.552 0 0 0 0 14.964l13.542 13.545a67.976 67.976 0 0 0-4.203 10.19h-19.174a10.56 10.56 0 0 0-10.58 10.586v21.166a10.557 10.557 0 0 0 10.58 10.58h19.174a67.853 67.853 0 0 0 4.203 10.195l-13.542 13.542a10.557 10.557 0 0 0 0 14.967l14.964 14.967a10.564 10.564 0 0 0 14.967 0l13.542-13.541a68.59 68.59 0 0 0 10.194 4.198v19.174a10.563 10.563 0 0 0 10.585 10.585h21.166a10.56 10.56 0 0 0 10.581-10.585v-19.174a68.247 68.247 0 0 0 10.194-4.198l13.542 13.541a10.564 10.564 0 0 0 14.967 0l14.968-14.967a10.564 10.564 0 0 0 0-14.967l-13.542-13.542a68.247 68.247 0 0 0 4.199-10.194h19.174a10.56 10.56 0 0 0 10.585-10.581V72.758a10.563 10.563 0 0 0-10.585-10.585h-19.174a68.373 68.373 0 0 0-4.199-10.19l13.542-13.546a10.559 10.559 0 0 0 0-14.964L313.868 8.506a10.557 10.557 0 0 0-14.967 0L285.36 22.048a68.434 68.434 0 0 0-10.194-4.203v-19.17a10.558 10.558 0 0 0-10.58-10.585zM254 41.007c23.455 0 42.336 18.88 42.336 42.332 0 23.454-18.881 42.335-42.336 42.335-23.45 0-42.332-18.88-42.332-42.335 0-23.451 18.881-42.332 42.332-42.332zm0 0" transform="matrix(1.0001 0 0 1.0001 0 215.02)" fill="url(#k)" stroke-width="3" stroke-linecap="round" stroke="#212121"/></svg>
